static/assets/img/icons/theme/media/play.svg

<svg height="24" viewBox="0 0 24 24" width="24" xmlns="http://www.w3.org/2000/svg"><g fill="none" fill-rule="evenodd"><path d="m0 0h24v24h-24z" opacity="0"/><path d="m9.82866499 18.2771971 6.74070291-5.8795768c.2081017-.1815167.2296532-.4973648.0481365-.7054664-.0145916-.0167287-.0302811-.0324672-.0469642-.0471108l-6.74070297-5.91665331c-.20753521-.18216407-.5234489-.1615967-.70561297.04593851-.08007089.09122286-.12422426.20845782-.12422426.32983722v11.79623018c0 .2761424.22385763.5.5.5.12084305 0 .23759731-.0437648.32866499-.1231986z" fill="#000"/></g></svg>

<svg width="24px" height="24px" viewBox="0 0 24 24" version="1.1" xmlns="http://www.w3.org/2000/svg" xmlns:xlink="http://www.w3.org/1999/xlink">
    <title>Icon For Play</title>
    <g stroke="none" stroke-width="1" fill="none" fill-rule="evenodd">
        <rect opacity="0" x="0" y="0" width="24" height="24"></rect>
        <path d="M9.82866499,18.2771971 L16.5693679,12.3976203 C16.7774696,12.2161036 16.7990211,11.9002555 16.6175044,11.6921539 C16.6029128,11.6754252 16.5872233,11.6596867 16.5705402,11.6450431 L9.82983723,5.72838979 C9.62230202,5.54622572 9.30638833,5.56679309 9.12422426,5.7743283 C9.04415337,5.86555116 9,5.98278612 9,6.10416552 L9,17.9003957 C9,18.1765381 9.22385763,18.4003957 9.5,18.4003957 C9.62084305,18.4003957 9.73759731,18.3566309 9.82866499,18.2771971 Z" fill="#000000"></path>
    </g>
</svg>
